Numix-GalliumOS/16/categories/applications-engineering.svg

<?xml version="1.0" encoding="UTF-8" standalone="no"?>
<svg
   xmlns:dc="http://purl.org/dc/elements/1.1/"
   xmlns:cc="http://creativecommons.org/ns#"
   xmlns:rdf="http://www.w3.org/1999/02/22-rdf-syntax-ns#"
   xmlns:svg="http://www.w3.org/2000/svg"
   xmlns="http://www.w3.org/2000/svg"
   xmlns:xlink="http://www.w3.org/1999/xlink"
   xmlns:sodipodi="http://sodipodi.sourceforge.net/DTD/sodipodi-0.dtd"
   xmlns:inkscape="http://www.inkscape.org/namespaces/inkscape"
   width="16"
   height="16"
   viewBox="0 0 16 16"
   id="svg138"
   version="1.1"
   inkscape:version="0.91 r"
   sodipodi:docname="applications-engineering.svg">
  <metadata
     id="metadata216">
    <rdf:RDF>
      <cc:Work
         rdf:about="">
        <dc:format>image/svg+xml</dc:format>
        <dc:type
           rdf:resource="http://purl.org/dc/dcmitype/StillImage" />
      </cc:Work>
    </rdf:RDF>
  </metadata>
  <sodipodi:namedview
     pagecolor="#ffffff"
     bordercolor="#666666"
     borderopacity="1"
     objecttolerance="10"
     gridtolerance="10"
     guidetolerance="10"
     inkscape:pageopacity="0"
     inkscape:pageshadow="2"
     inkscape:window-width="640"
     inkscape:window-height="480"
     id="namedview214" />
  <defs
     id="defs140">
    <clipPath
       id="clip1">
      <rect
         width="16"
         height="16"
         id="rect143" />
    </clipPath>
    <clipPath
       id="clip2">
      <rect
         width="16"
         height="16"
         id="rect146" />
    </clipPath>
    <filter
       width="100%"
       x="0"
       y="0"
       height="100%"
       filterUnits="objectBoundingBox"
       id="alpha">
      <feColorMatrix
         values="0 0 0 0 1 0 0 0 0 1 0 0 0 0 1 0 0 0 1 0"
         in="SourceGraphic"
         type="matrix"
         id="feColorMatrix149" />
    </filter>
    <g
       style="clip-path:url(#clip2)"
       id="surface9"
       clip-path="url(#clip2)">
      <path
         style="fill:none;stroke:url(#linear0);stroke-linecap:round;stroke-width:.681"
         d="M 25.675781 21.28125 L 27.046875 21.28125 "
         transform="scale(.33333)"
         id="path152" />
    </g>
    <g
       style="clip-path:url(#clip1)"
       id="surface6"
       clip-path="url(#clip1)">
      <path
         style="fill:#6fac63;fill-rule:evenodd;stroke:#6fac63;stroke-linecap:round;stroke-width:.681"
         d="M 27.726562 25.441406 L 27.726562 29.425781 C 28.980469 30.492188 29.789062 32.074219 29.789062 33.855469 C 29.789062 33.960938 29.789062 34.125 29.789062 34.230469 L 27.726562 34.230469 L 27.726562 36.9375 L 29.085938 36.9375 L 29.085938 37.640625 L 30.492188 37.640625 L 30.492188 36.9375 L 31.804688 36.9375 L 31.804688 29.015625 C 30.84375 27.457031 29.414062 26.203125 27.726562 25.441406 Z "
         transform="scale(.33333)"
         id="path155" />
    </g>
    <linearGradient
       gradientTransform="matrix(.68089 0 0 .68085 19.21267 9.36186)"
       id="linear0"
       x1="9.531"
       gradientUnits="userSpaceOnUse"
       x2="11.468">
      <stop
         offset="0"
         style="stop-color:#fff"
         id="stop158" />
      <stop
         offset="1"
         style="stop-color:#fff;stop-opacity:0"
         id="stop160" />
    </linearGradient>
    <mask
       id="mask0">
      <g
         style="filter:url(#alpha)"
         id="g163">
        <rect
           width="16"
           x="0"
           y="0"
           height="16"
           style="fill:#000;fill-opacity:.102"
           id="rect165" />
      </g>
    </mask>
    <mask
       id="mask1">
      <g
         style="filter:url(#alpha)"
         id="g168">
        <rect
           width="16"
           x="0"
           y="0"
           height="16"
           style="fill:#000;fill-opacity:.537"
           id="rect170" />
      </g>
    </mask>
  </defs>
  <g
     style="fill:#6fac63;fill-rule:evenodd"
     id="g172">
    <g
       style="stroke:#6fac63;stroke-width:.681"
       id="g174">
      <path
         d="M 31.804688 12.421875 L 35.214844 12.421875 C 35.214844 11.53125 33.023438 10.617188 31.804688 10.382812 Z "
         transform="scale(.33333)"
         id="path176" />
      <g
         style="stroke-linecap:round"
         id="g178">
        <path
           style="stroke-miterlimit:10"
           d="M 31.125 16.511719 L 33.855469 16.511719 L 33.855469 17.871094 L 31.125 17.871094 Z "
           transform="scale(.33333)"
           id="path180" />
        <path
           style="stroke-linejoin:round"
           d="M 12.082031 37.640625 L 35.917969 37.640625 L 35.917969 34.230469 L 33.1875 34.230469 C 33.199219 34.125 33.1875 33.960938 33.1875 33.855469 C 33.1875 28.78125 29.074219 24.65625 24 24.65625 C 18.925781 24.65625 14.8125 28.78125 14.8125 33.855469 C 14.8125 33.960938 14.824219 34.125 14.824219 34.230469 L 12.082031 34.230469 Z M 18.210938 33.855469 C 18.210938 30.65625 20.800781 28.066406 24 28.066406 C 27.199219 28.066406 29.789062 30.65625 29.789062 33.855469 C 29.789062 33.960938 29.789062 34.125 29.789062 34.230469 L 18.210938 34.230469 C 18.210938 34.125 18.210938 33.960938 18.210938 33.855469 Z "
           transform="scale(.33333)"
           id="path182" />
      </g>
    </g>
    <path
       d="M 5.050781 10.808594 L 5.367188 10.902344 C 5.386719 10.828125 5.410156 10.753906 5.433594 10.679688 L 5.105469 10.589844 Z M 5.324219 10.027344 L 5.632812 10.210938 C 5.667969 10.148438 5.703125 10.082031 5.746094 10.019531 L 5.433594 9.828125 L 5.328125 10.027344 Z M 5.78125 9.347656 L 6.058594 9.636719 C 6.109375 9.582031 6.164062 9.53125 6.21875 9.480469 L 5.9375 9.183594 Z M 6.398438 8.816406 L 6.601562 9.199219 C 6.664062 9.160156 6.730469 9.125 6.792969 9.09375 L 6.582031 8.703125 Z M 7.113281 8.46875 L 7.226562 8.914062 C 7.296875 8.894531 7.363281 8.878906 7.433594 8.867188 L 7.320312 8.410156 Z M 7.894531 8.808594 C 7.929688 8.808594 7.964844 8.800781 8 8.800781 C 8.035156 8.800781 8.070312 8.808594 8.105469 8.808594 L 8.105469 8.332031 L 7.894531 8.332031 Z M 8.566406 8.867188 C 8.636719 8.878906 8.703125 8.894531 8.773438 8.914062 L 8.886719 8.46875 L 8.679688 8.410156 Z M 9.207031 9.09375 C 9.269531 9.125 9.335938 9.160156 9.398438 9.199219 L 9.601562 8.816406 L 9.417969 8.703125 Z M 9.78125 9.480469 C 9.835938 9.53125 9.890625 9.582031 9.945312 9.636719 L 10.21875 9.347656 L 10.0625 9.183594 Z M 10.253906 10.019531 C 10.296875 10.082031 10.332031 10.148438 10.367188 10.210938 L 10.675781 10.027344 L 10.566406 9.828125 Z M 10.566406 10.679688 C 10.589844 10.753906 10.613281 10.828125 10.632812 10.902344 L 10.949219 10.808594 L 10.894531 10.589844 Z "
       id="path184" />
    <path
       d="M 4.824219 12.433594 L 5.050781 12.433594 L 5.050781 11.980469 L 4.824219 11.980469 Z M 5.277344 12.433594 L 5.503906 12.433594 L 5.503906 11.75 L 5.277344 11.75 Z M 5.730469 12.433594 L 5.957031 12.433594 L 5.957031 11.980469 L 5.730469 11.980469 Z M 6.183594 12.433594 L 6.410156 12.433594 L 6.410156 11.75 L 6.183594 11.75 Z M 6.636719 12.433594 L 6.863281 12.433594 L 6.863281 11.980469 L 6.636719 11.980469 Z M 7.09375 12.433594 L 7.320312 12.433594 L 7.320312 11.75 L 7.09375 11.75 Z M 7.546875 12.433594 L 7.773438 12.433594 L 7.773438 11.980469 L 7.546875 11.980469 Z M 8 12.433594 L 8.226562 12.433594 L 8.226562 11.75 L 8 11.75 Z M 8.453125 12.433594 L 8.679688 12.433594 L 8.679688 11.980469 L 8.453125 11.980469 Z M 8.90625 12.433594 L 9.136719 12.433594 L 9.136719 11.75 L 8.90625 11.75 Z M 9.363281 12.433594 L 9.589844 12.433594 L 9.589844 11.980469 L 9.363281 11.980469 Z M 9.816406 12.433594 L 10.042969 12.433594 L 10.042969 11.75 L 9.816406 11.75 Z M 10.269531 12.433594 L 10.496094 12.433594 L 10.496094 11.980469 L 10.269531 11.980469 Z M 10.722656 12.433594 L 10.949219 12.433594 L 10.949219 11.75 L 10.722656 11.75 Z M 11.175781 12.433594 L 11.40625 12.433594 L 11.40625 11.980469 L 11.175781 11.980469 Z "
       id="path186" />
  </g>
  <use
     style="mask:url(#mask0)"
     xlink:href="#surface6"
     id="use188"
     mask="url(#mask0)" />
  <g
     style="fill:#6fac63;fill-rule:evenodd"
     id="g190">
    <g
       style="stroke-width:.681;stroke:#6fac63"
       id="g192">
      <path
         style="stroke-linejoin:round;stroke-linecap:round"
         d="M 28.40625 35.578125 L 29.800781 35.578125 L 29.800781 39.65625 L 28.40625 39.65625 Z "
         transform="scale(.33333)"
         id="path194" />
      <path
         d="M 31.125 6.339844 L 26.367188 6.339844 C 24.972656 6.339844 18.855469 7.722656 18.855469 7.722656 C 18.257812 8.0625 18.1875 8.683594 18.1875 9.75 L 25.675781 9.75 C 25.675781 8.929688 26.203125 9.058594 27.046875 9.058594 L 27.046875 34.253906 L 31.125 34.253906 L 31.125 9.761719 C 32.660156 9.761719 35.214844 8.742188 35.214844 7.699219 L 31.125 7.699219 Z "
         transform="scale(.33333)"
         id="path196" />
    </g>
    <path
       d="M 7.085938 4.480469 L 7.085938 4.714844 C 7.085938 4.839844 6.988281 4.9375 6.867188 4.9375 L 6.324219 4.9375 C 6.324219 4.9375 6.175781 4.832031 6.175781 4.714844 L 6.175781 4.480469 Z "
       id="path198" />
    <path
       style="stroke:#6fac63;stroke-linecap:round;stroke-width:.681;stroke-miterlimit:10"
       d="M 33.503906 15.832031 L 34.207031 15.832031 C 34.382812 15.832031 34.535156 15.972656 34.535156 16.160156 L 34.535156 18.222656 C 34.535156 18.410156 34.382812 18.550781 34.207031 18.550781 L 33.503906 18.550781 C 33.316406 18.550781 33.175781 18.410156 33.175781 18.222656 L 33.175781 16.160156 C 33.175781 15.972656 33.316406 15.832031 33.503906 15.832031 Z "
       transform="scale(.33333)"
       id="path200" />
    <path
       style="fill-opacity:.157"
       d="M 8.902344 5.390625 L 8.902344 5.617188 L 9.128906 5.617188 L 9.128906 5.390625 Z M 8.902344 5.84375 L 8.902344 6.070312 L 9.128906 6.070312 L 9.128906 5.84375 Z M 8.902344 6.296875 L 8.902344 6.523438 L 9.128906 6.523438 L 9.128906 6.296875 Z M 8.902344 6.75 L 8.902344 6.980469 L 9.128906 6.980469 L 9.128906 6.75 Z "
       id="path202" />
    <path
       style="fill-opacity:.102"
       d="M 10.261719 5.390625 L 10.261719 5.617188 L 10.488281 5.617188 L 10.488281 5.390625 Z M 10.261719 5.84375 L 10.261719 6.070312 L 10.488281 6.070312 L 10.488281 5.84375 Z M 10.261719 6.296875 L 10.261719 6.523438 L 10.488281 6.523438 L 10.488281 6.296875 Z M 10.261719 6.75 L 10.261719 6.980469 L 10.488281 6.980469 L 10.488281 6.75 Z "
       id="path204" />
  </g>
  <use
     style="mask:url(#mask1)"
     xlink:href="#surface9"
     id="use206"
     mask="url(#mask1)" />
  <g
     style="fill:#6fac63;fill-rule:evenodd"
     id="g208">
    <path
       style="fill-opacity:.533"
       d="M 10.261719 4.710938 L 10.488281 4.710938 L 10.488281 4.9375 L 10.261719 4.9375 Z "
       id="path210" />
    <path
       style="stroke:#6fac63;stroke-linecap:round;stroke-width:.681;stroke-miterlimit:10"
       d="M 18.128906 13.148438 C 18.128906 14.214844 18.199219 14.824219 18.785156 15.175781 L 25.957031 16.558594 C 26.214844 16.675781 26.296875 16.898438 26.296875 17.238281 L 26.296875 20.636719 L 25.617188 20.636719 C 25.242188 20.636719 24.9375 20.941406 24.9375 21.316406 C 24.9375 21.691406 25.242188 21.996094 25.617188 21.996094 L 27.667969 21.996094 L 27.667969 13.828125 L 26.296875 13.828125 C 25.605469 13.828125 25.617188 13.769531 25.617188 13.148438 Z M 30.386719 13.828125 L 30.386719 21.996094 L 31.746094 21.996094 L 31.746094 13.828125 Z "
       transform="scale(.33333)"
       id="path212" />
  </g>
</svg>

<svg xmlns="http://www.w3.org/2000/svg" xmlns:xlink="http://www.w3.org/1999/xlink" viewBox="0 0 16 16">
 <defs>
  <filter width="16" x="0" y="0" height="16" filterUnits="objectBoundingBox" id="alpha">
   <feColorMatrix values="0 0 0 0 1 0 0 0 0 1 0 0 0 0 1 0 0 0 1 0" in="SourceGraphic" type="matrix"/>
  </filter>
  <g id="surface9">
   <path d="m 25.676 21.281 l 1.371 0" transform="scale(.33333)" style="fill:none;stroke:url(#linear0);stroke-linecap:round;stroke-width:0.681"/>
  </g>
  <g id="surface6">
   <path d="m 27.727 25.441 l 0 3.984 c 1.254 1.066 2.063 2.648 2.063 4.43 c 0 0.105 0 0.27 0 0.375 l -2.063 0 l 0 2.707 l 1.359 0 l 0 0.703 l 1.406 0 l 0 -0.703 l 1.313 0 l 0 -7.922 c -0.961 -1.559 -2.391 -2.813 -4.078 -3.574 Z" transform="scale(.33333)" style="fill:#6fac63;stroke:#6fac63;fill-rule:evenodd;stroke-linecap:round;stroke-width:0.681"/>
  </g>
  <linearGradient gradientTransform="matrix(.68089 0 0 .68085 19.21267 9.36186)" id="linear0" x1="9.531" gradientUnits="userSpaceOnUse" x2="11.468">
   <stop style="stop-color:#fff"/>
   <stop offset="1" style="stop-color:#fff;stop-opacity:0"/>
  </linearGradient>
  <mask id="mask0">
   <g style="filter:url(#alpha)">
    <rect width="16" height="16" style="fill:#000;fill-opacity:0.102"/>
   </g>
  </mask>
  <mask id="mask1">
   <g style="filter:url(#alpha)">
    <rect width="16" height="16" style="fill:#000;fill-opacity:0.537"/>
   </g>
  </mask>
 </defs>
 <g style="fill:#6fac63;fill-rule:evenodd">
  <g style="stroke:#6fac63;stroke-width:0.681">
   <path d="m 31.805 12.422 l 3.41 0 c 0 -0.891 -2.191 -1.805 -3.41 -2.039 Z" transform="scale(.33333)"/>
   <g style="stroke-linecap:round">
    <path d="m 31.13 16.512 l 2.73 0 l 0 1.359 l -2.73 0 Z" transform="scale(.33333)" style="stroke-miterlimit:10"/>
    <path d="m 12.08 37.641 l 23.836 0 l 0 -3.41 l -2.73 0 c 0.012 -0.105 0 -0.27 0 -0.375 c 0 -5.074 -4.113 -9.199 -9.188 -9.199 c -5.074 0 -9.188 4.125 -9.188 9.199 c 0 0.105 0.012 0.27 0.012 0.375 l -2.742 0 m 6.129 -0.375 c 0 -3.199 2.59 -5.789 5.789 -5.789 c 3.199 0 5.789 2.59 5.789 5.789 c 0 0.105 0 0.27 0 0.375 l -11.578 0 c 0 -0.105 0 -0.27 0 -0.375 Z" transform="scale(.33333)" style="stroke-linejoin:round"/>
   </g>
  </g>
  <path d="m 5.05 10.809 l 0.316 0.094 c 0.02 -0.074 0.043 -0.148 0.066 -0.223 l -0.328 -0.09 m 0.219 -0.563 l 0.309 0.184 c 0.035 -0.063 0.07 -0.129 0.113 -0.191 l -0.313 -0.191 l -0.105 0.199 m 0.453 -0.68 l 0.277 0.289 c 0.051 -0.055 0.105 -0.105 0.16 -0.156 l -0.281 -0.297 m 0.461 -0.367 l 0.203 0.383 c 0.063 -0.039 0.129 -0.074 0.191 -0.105 l -0.211 -0.391 m 0.531 -0.234 l 0.113 0.445 c 0.07 -0.02 0.137 -0.035 0.207 -0.047 l -0.113 -0.457 m 0.574 0.398 c 0.035 0 0.07 -0.008 0.105 -0.008 c 0.035 0 0.07 0.008 0.105 0.008 l 0 -0.477 l -0.211 0 m 0.672 0.535 c 0.07 0.012 0.137 0.027 0.207 0.047 l 0.113 -0.445 l -0.207 -0.059 m 0.527 0.684 c 0.063 0.031 0.129 0.066 0.191 0.105 l 0.203 -0.383 l -0.184 -0.113 m 0.363 0.777 c 0.055 0.051 0.109 0.102 0.164 0.156 l 0.273 -0.289 l -0.156 -0.164 m 0.191 0.836 c 0.043 0.063 0.078 0.129 0.113 0.191 l 0.309 -0.184 l -0.109 -0.199 m 0 0.852 c 0.023 0.074 0.047 0.148 0.066 0.223 l 0.316 -0.094 l -0.055 -0.219 Z"/>
  <path d="m 4.824 12.434 l 0.227 0 l 0 -0.453 l -0.227 0 m 0.453 0.453 l 0.227 0 l 0 -0.684 l -0.227 0 m 0.453 0.684 l 0.227 0 l 0 -0.453 l -0.227 0 m 0.453 0.453 l 0.227 0 l 0 -0.684 l -0.227 0 m 0.453 0.684 l 0.227 0 l 0 -0.453 l -0.227 0 m 0.457 0.453 l 0.227 0 l 0 -0.684 l -0.227 0 m 0.453 0.684 l 0.227 0 l 0 -0.453 l -0.227 0 m 0.453 0.453 l 0.227 0 l 0 -0.684 l -0.227 0 m 0.453 0.684 l 0.227 0 l 0 -0.453 l -0.227 0 m 0.453 0.453 l 0.23 0 l 0 -0.684 l -0.23 0 m 0.457 0.684 l 0.227 0 l 0 -0.453 l -0.227 0 m 0.453 0.453 l 0.227 0 l 0 -0.684 l -0.227 0 m 0.453 0.684 l 0.227 0 l 0 -0.453 l -0.227 0 m 0.453 0.453 l 0.227 0 l 0 -0.684 l -0.227 0 m 0.453 0.684 l 0.23 0 l 0 -0.453 l -0.23 0 Z"/>
 </g>
 <use xlink:href="#surface6" style="mask:url(#mask0)"/>
 <g style="fill:#6fac63;fill-rule:evenodd">
  <g style="stroke:#6fac63;stroke-width:0.681">
   <path d="m 28.406 35.578 l 1.395 0 l 0 4.078 l -1.395 0 Z" transform="scale(.33333)" style="stroke-linecap:round;stroke-linejoin:round"/>
   <path d="m 31.13 6.34 l -4.758 0 c -1.395 0 -7.512 1.383 -7.512 1.383 c -0.598 0.34 -0.668 0.961 -0.668 2.027 l 7.488 0 c 0 -0.82 0.527 -0.691 1.371 -0.691 l 0 25.2 l 4.078 0 l 0 -24.492 c 1.535 0 4.09 -1.02 4.09 -2.062 l -4.09 0 Z" transform="scale(.33333)"/>
  </g>
  <path d="m 7.086 4.48 l 0 0.234 c 0 0.125 -0.098 0.223 -0.219 0.223 l -0.543 0 c 0 0 -0.148 -0.105 -0.148 -0.223 l 0 -0.234 Z"/>
  <path d="m 33.504 15.832 l 0.703 0 c 0.176 0 0.328 0.141 0.328 0.328 l 0 2.063 c 0 0.188 -0.152 0.328 -0.328 0.328 l -0.703 0 c -0.188 0 -0.328 -0.141 -0.328 -0.328 l 0 -2.063 c 0 -0.188 0.141 -0.328 0.328 -0.328 Z" transform="scale(.33333)" style="stroke-miterlimit:10;stroke:#6fac63;stroke-linecap:round;stroke-width:0.681"/>
  <path d="m 8.902 5.391 l 0 0.227 l 0.227 0 l 0 -0.227 m -0.227 0.453 l 0 0.227 l 0.227 0 l 0 -0.227 m -0.227 0.453 l 0 0.227 l 0.227 0 l 0 -0.227 m -0.227 0.453 l 0 0.23 l 0.227 0 l 0 -0.23 Z" style="fill-opacity:0.157"/>
  <path d="m 10.262 5.391 l 0 0.227 l 0.227 0 l 0 -0.227 m -0.227 0.453 l 0 0.227 l 0.227 0 l 0 -0.227 m -0.227 0.453 l 0 0.227 l 0.227 0 l 0 -0.227 m -0.227 0.453 l 0 0.23 l 0.227 0 l 0 -0.23 Z" style="fill-opacity:0.102"/>
 </g>
 <use xlink:href="#surface9" style="mask:url(#mask1)"/>
 <g style="fill:#6fac63;fill-rule:evenodd">
  <path d="m 10.262 4.711 l 0.227 0 l 0 0.227 l -0.227 0 Z" style="fill-opacity:0.533"/>
  <path d="m 18.13 13.148 c 0 1.066 0.07 1.676 0.656 2.027 l 7.172 1.383 c 0.258 0.117 0.34 0.34 0.34 0.68 l 0 3.398 l -0.68 0 c -0.375 0 -0.68 0.305 -0.68 0.68 c 0 0.375 0.305 0.68 0.68 0.68 l 2.051 0 l 0 -8.168 l -1.371 0 c -0.691 0 -0.68 -0.059 -0.68 -0.68 m 4.77 0.68 l 0 8.168 l 1.359 0 l 0 -8.168 Z" transform="scale(.33333)" style="stroke-miterlimit:10;stroke:#6fac63;stroke-linecap:round;stroke-width:0.681"/>
 </g>
</svg>
